X:1
T:Buachaill Dreoite, An [1]
T:The Ailing Boy
S:from study tape from Mike Rafferty.
R:barndance
H:Hornpipe or Fling (4/4 time). Similarities with "Sean Reid's Reel" (The West Wind)
H:and the jig "Bimid ag ol is a' pogadh na mban."
N:dreoite [DROH-tcha] << Irish word:definition... (smell) mouldy; (US) moldy. Bob Pfeffer says
N:he thinks it means the Withered Lad or the Spent Lad. Jerome Colburn says dreoghaim:
N:"I rot, I wither". The lad's withered away, wasted away (sc. from lovesickness). On the liner
N:notes for Chulrua's _Down the Back Lane_, "An Buachaill Dreoite" is translated "The Ailing Boy."
D:Chieftains 7; Declan Masterson (pipes, whistle); Mick O' Brien (pipes, whistle);
D:Chulrua; Tommy Keane & Jacqueline Mccarthy: The Wind Among The Reeds;
D:Joe Ryan (fiddle); Ronan Browne and Peter O'Loughlin.
M:C|
K:

L:1/8

Z:Lesl
K:G
GF|: DGGB d2cA | DGGF G2GF | DGGB d2cA | dcAG EFFE|
DGGB d2cA | DGGF GABd | g2gf gbag |1 fdcA G2GF:|2 fdcA G2GA||
|:B2BG c2cA | dGGF G2GA | BdBG c3A | dcAG EFGA|
B2BG c2cA | d^cde fgaf | g2gf gbag |1 fdcA G2GA:|2 fdcA G2||
